build/assets/icon2BW.svg

<svg width="155" height="109" viewBox="0 0 155 109" fill="none" xmlns="http://www.w3.org/2000/svg">
<path d="M135.5 83.514V31.3254C135.5 28.7051 133.317 26.5809 130.625 26.5809L101.375 26.5809C98.6826 26.5809 96.5 28.7051 96.5 31.3254V83.514C96.5 86.1342 98.6826 88.2584 101.375 88.2584H130.625C133.317 88.2584 135.5 86.1342 135.5 83.514Z" stroke="#A09AFF" stroke-width="4.875" stroke-linecap="round" stroke-linejoin="round"/>
<path d="M106.25 36.0698H125.75" stroke="#A09AFF" stroke-width="4.875" stroke-linecap="round" stroke-linejoin="round"/>
<path d="M72.1875 16.3926H32.8125C29.1881 16.3926 26.25 19.252 26.25 22.7793V93.0332C26.25 96.5605 29.1881 99.4199 32.8125 99.4199H72.1875C75.8119 99.4199 78.75 96.5605 78.75 93.0332V22.7793C78.75 19.252 75.8119 16.3926 72.1875 16.3926Z" stroke="#6C63FF" stroke-width="6.5625" stroke-linecap="round" stroke-linejoin="round"/>
<path d="M26.25 29.166H78.75" stroke="#6C63FF" stroke-width="6.5625" stroke-linecap="round" stroke-linejoin="round"/>
<path d="M26.25 86.6465H78.75" stroke="#6C63FF" stroke-width="6.5625" stroke-linecap="round" stroke-linejoin="round"/>
</svg>

<svg width="155" height="109" fill="none" xmlns="http://www.w3.org/2000/svg"><path d="M135.5 83.514V31.325c0-2.62-2.183-4.744-4.875-4.744h-29.25c-2.692 0-4.875 2.124-4.875 4.744v52.189c0 2.62 2.183 4.744 4.875 4.744h29.25c2.692 0 4.875-2.124 4.875-4.744ZM106.25 36.07h19.5" stroke="#A09AFF" stroke-width="4.875" stroke-linecap="round" stroke-linejoin="round"/><path d="M72.188 16.393H32.812c-3.624 0-6.562 2.859-6.562 6.386v70.254c0 3.528 2.938 6.387 6.563 6.387h39.374c3.625 0 6.563-2.86 6.563-6.387V22.78c0-3.527-2.938-6.386-6.563-6.386ZM26.25 29.166h52.5M26.25 86.647h52.5" stroke="#6C63FF" stroke-width="6.563" stroke-linecap="round" stroke-linejoin="round"/></svg>
